webapp/src/assets/icons/cloudproviders/aws/database/dynamodb_accelerator.svg

<svg width="48" height="48" xmlns="http://www.w3.org/2000/svg"><path d="M6 35h24v-2H6v2Zm-4-7.073h15v-2H2v2ZM22 31v-3.073h-2.916v-2H22V23h2v2.927h3v2h-3V31h-2Zm12.4 8.656 2.559-9.675a1.003 1.003 0 0 0-.967-1.256h-4.384L35.641 20h6.37l-4.007 6.474a1.003 1.003 0 0 0-.024 1.013c.177.317.512.513.874.513h3.988L34.4 39.656Zm11.291-13.111a.999.999 0 0 0-.89-.545h-4.152l4.007-6.473a1 1 0 0 0-.85-1.527h-8.805c-.39 0-.744.227-.908.58l-4.956 10.725c-.143.31-.118.671.065.959.185.287.502.461.843.461h4.648l-3.598 13.61a1 1 0 0 0 1.776.843L45.61 27.587a1 1 0 0 0 .081-1.042ZM28.448 40.084l.301 1.977c-1.511.23-3.088.347-4.686.347-7.21 0-14.51-2.038-14.51-5.933h2c0 1.642 4.76 3.933 12.51 3.933a29.23 29.23 0 0 0 4.385-.324ZM11.033 9.754C11.033 7.84 16.464 5 23.966 5 31.763 5 37 7.572 37 9.976c0 1.662-5.064 4.077-13 4.077-7.841 0-12.879-2.358-12.998-4.018l.031-.281ZM11 13.123c2.768 1.919 7.991 2.93 13 2.93s10.232-1.011 13-2.93V16h2v-6h-.003c0-.008.003-.015.003-.024C39 5.934 32.677 3 23.966 3 15.933 3 9.136 6.047 9.034 9.672L9 9.976c0 .009.003.016.003.024H9v14h2V13.123Z" fill="#C925D1" fill-rule="evenodd"/></svg>

<?xml version="1.0" encoding="UTF-8"?>
<svg width="48px" height="48px" viewBox="0 0 48 48" version="1.1" xmlns="http://www.w3.org/2000/svg" xmlns:xlink="http://www.w3.org/1999/xlink">
    <title>Icon-Resource/Database/Res_Amazon-DynamoDB_Amazon-DynamoDB-Accelerator_48</title>
    <g id="Icon-Resource/Database/Res_Amazon-DynamoDB_Amazon-DynamoDB-Accelerator_48" stroke="none" stroke-width="1" fill="none" fill-rule="evenodd">
        <path d="M6,35 L30,35 L30,33 L6,33 L6,35 Z M2,27.927 L17,27.927 L17,25.927 L2,25.927 L2,27.927 Z M22,31 L22,27.927 L19.084,27.927 L19.084,25.927 L22,25.927 L22,23 L24,23 L24,25.927 L27,25.927 L27,27.927 L24,27.927 L24,31 L22,31 Z M34.4,39.656 L36.959,29.981 C37.038,29.681 36.974,29.361 36.784,29.114 C36.596,28.869 36.303,28.725 35.992,28.725 L31.608,28.725 L35.641,20 L42.011,20 L38.004,26.474 C37.813,26.782 37.805,27.17 37.98,27.487 C38.157,27.804 38.492,28 38.854,28 L42.842,28 L34.4,39.656 Z M45.691,26.545 C45.521,26.211 45.177,26 44.801,26 L40.649,26 L44.656,19.527 C44.847,19.218 44.855,18.83 44.68,18.514 C44.503,18.196 44.168,18 43.806,18 L35.001,18 C34.611,18 34.257,18.227 34.093,18.58 L29.137,29.305 C28.994,29.615 29.019,29.976 29.202,30.264 C29.387,30.551 29.704,30.725 30.045,30.725 L34.693,30.725 L31.095,44.335 C30.972,44.801 31.198,45.288 31.633,45.494 C31.771,45.56 31.917,45.591 32.062,45.591 C32.374,45.591 32.678,45.445 32.871,45.178 L45.61,27.587 C45.831,27.282 45.862,26.88 45.691,26.545 L45.691,26.545 Z M28.448,40.084 L28.749,42.061 C27.238,42.291 25.661,42.408 24.063,42.408 C16.853,42.408 9.553,40.37 9.553,36.475 L11.553,36.475 C11.553,38.117 16.313,40.408 24.063,40.408 C25.561,40.408 27.036,40.299 28.448,40.084 L28.448,40.084 Z M11.033,9.754 C11.033,7.84 16.464,5 23.966,5 C31.763,5 37,7.572 37,9.976 C37,11.638 31.936,14.053 24,14.053 C16.159,14.053 11.121,11.695 11.002,10.035 L11.033,9.754 Z M11,13.123 C13.768,15.042 18.991,16.053 24,16.053 C29.009,16.053 34.232,15.042 37,13.123 L37,16 L39,16 L39,10 L38.997,10 C38.997,9.992 39,9.985 39,9.976 C39,5.934 32.677,3 23.966,3 C15.933,3 9.136,6.047 9.034,9.672 L9,9.976 C9,9.985 9.003,9.992 9.003,10 L9,10 L9,24 L11,24 L11,13.123 Z" id="Amazon-DATABASE_Amazon-DynamoDB_Amazon-DynamoDB-Accelerator_Resource-Icon_light-bg" fill="#C925D1"></path>
    </g>
</svg>
